public/uptime-guarantee.svg

<svg width="108" height="109" viewBox="0 0 108 109" fill="none" xmlns="http://www.w3.org/2000/svg">
<g clip-path="url(#clip0_9_91071)">
<path d="M10.1048 94.467H10.0969L12.006 95.5693C15.7451 97.7327 20.9125 97.4214 26.6209 94.1209L89.0492 58.034C98.0054 52.8604 105.268 40.2704 105.268 29.9277C105.268 24.3181 103.121 20.5389 99.7369 19.0617C100.002 19.1693 100.262 19.2909 100.514 19.4262L98.6177 18.3301V18.3389C95.6747 16.58 91.5803 16.8015 87.053 19.4175C84.9309 20.6827 82.9898 22.2301 81.2828 24.0173C80.0443 19.6756 77.704 16.5084 74.5764 14.7086L72.6769 13.6074C72.6715 13.6037 72.6656 13.6008 72.6595 13.5986L72.298 13.392L72.2839 13.4094C67.5711 10.8657 61.1687 11.3079 54.0904 15.3984C44.6708 20.8432 36.4376 31.3673 31.8163 42.644C29.2754 43.0668 26.8364 43.9636 24.6263 45.2879C13.2227 51.8776 3.97832 67.8954 3.98442 81.0626C3.97309 87.6924 6.32044 92.3298 10.1048 94.467Z" fill="#1B69FF"/>
<path d="M17.392 97.4537C15.4192 97.4789 13.4755 96.9774 11.7605 96.001L9.85206 94.8987C9.82805 94.8851 9.80541 94.8694 9.78423 94.8517C5.71768 92.5069 3.48003 87.614 3.48438 81.0644C3.48438 67.7612 12.8526 51.5202 24.3755 44.8616C26.5602 43.559 28.9601 42.6579 31.4617 42.2012C36.3513 30.4187 44.7005 20.2538 53.8404 14.9721C60.7541 10.9775 67.3404 10.2484 72.3921 12.9124C72.4432 12.9218 72.4923 12.9399 72.5375 12.9656L72.8805 13.1618C72.8927 13.1679 72.9059 13.1749 72.9181 13.1828L74.8176 14.2841C78.0697 16.2787 80.4571 19.421 81.5091 23.0912C83.0965 21.5114 84.8737 20.1348 86.7996 18.9929C91.3068 16.3882 95.5579 15.9905 98.7831 17.8688C98.8109 17.8785 98.8377 17.8908 98.8632 17.9055L100.759 19.0016C100.805 19.0282 100.847 19.0621 100.882 19.1019C103.998 20.9741 105.76 24.8501 105.76 29.9322C105.76 40.4223 98.3737 53.2224 89.2938 58.4675L26.8665 94.5543C24.0147 96.3307 20.7485 97.3303 17.392 97.4537ZM10.4243 94.0852L12.2534 95.1429C15.9985 97.309 21.0126 96.7936 26.3734 93.6945L88.8009 57.6076C97.6073 52.5204 104.772 40.104 104.772 29.9303C104.772 24.7646 102.865 20.9706 99.5383 19.5179C99.4374 19.4735 99.3541 19.3969 99.3015 19.2999L98.4505 18.808C98.4201 18.797 98.3909 18.783 98.3633 18.7662C95.4499 17.0222 91.5193 17.4093 87.3021 19.8483C85.2198 21.0913 83.3154 22.6111 81.6408 24.3661C81.5803 24.4283 81.5045 24.4736 81.4211 24.4972C81.3377 24.5208 81.2495 24.522 81.1655 24.5007C81.0815 24.4794 81.0046 24.4363 80.9425 24.3758C80.8803 24.3153 80.8353 24.2395 80.8117 24.156C79.6307 20.0175 77.3905 16.9001 74.3334 15.1413L72.4478 14.0486H72.4407L72.1743 13.8969C72.1318 13.8879 72.0906 13.873 72.0523 13.8524C67.2907 11.2809 61.0006 11.9854 54.3412 15.8336C45.3188 21.0473 37.0707 31.1433 32.2769 42.8385C32.2444 42.9178 32.192 42.9873 32.1247 43.0402C32.0574 43.093 31.9775 43.1276 31.8929 43.1403C29.4133 43.5555 27.0331 44.4316 24.8754 45.7232C13.6251 52.2248 4.47562 68.0804 4.4791 81.0688C4.4791 87.2897 6.56252 91.8956 10.3556 94.039C10.3796 94.0532 10.4023 94.0695 10.4234 94.0878L10.4243 94.0852Z" fill="#005BEA"/>
<path d="M39.714 63.3551C39.714 60.2586 39.0991 58.8712 38.1681 58.2155C37.1804 57.5223 36.1561 57.5179 34.4046 58.3829C32.9436 59.1409 31.7119 60.2765 30.8371 61.6718C29.9623 63.0671 29.4764 64.6714 29.4297 66.3181C29.4297 69.5035 31.2586 70.4732 34.0875 69.0737C35.1666 68.5338 36.0807 67.713 36.7336 66.6975C36.5472 68.8845 35.6884 70.7548 34.0875 71.5466C33.6574 71.7996 33.17 71.9389 32.6714 71.9514C32.1727 71.9639 31.6791 71.8492 31.2369 71.6181L29.7282 74.9684C30.4086 75.2836 31.1566 75.424 31.9048 75.3771C32.653 75.3303 33.3778 75.0975 34.0135 74.6998C37.7204 72.8704 39.714 68.4336 39.714 63.3551ZM36.7893 62.5493C36.7714 63.2742 36.5529 63.98 36.1582 64.588C35.7635 65.1959 35.2079 65.6823 34.5534 65.9929C33.1372 66.6905 32.2795 66.1577 32.2795 64.7547C32.287 64.0252 32.4988 63.3125 32.8908 62.6976C33.2828 62.0827 33.8392 61.5903 34.4969 61.2762C35.9313 60.5673 36.7893 61.1463 36.7893 62.5493ZM52.0487 57.2624C52.0487 54.1659 51.4337 52.7778 50.5026 52.1229C49.5149 51.4297 48.4908 51.4252 46.7402 52.2894C45.2792 53.0474 44.0473 54.183 43.1725 55.5783C42.2977 56.9736 41.8118 58.5779 41.7651 60.2247C41.7651 63.4101 43.5942 64.3796 46.4231 62.981C47.5021 62.4409 48.4159 61.6202 49.069 60.6048C48.8826 62.7917 48.024 64.6622 46.4231 65.454C45.9931 65.7071 45.5057 65.8465 45.007 65.859C44.5082 65.8715 44.0145 65.7568 43.5723 65.5255L42.0621 68.8766C42.7425 69.1917 43.4906 69.3321 44.2387 69.2852C44.9868 69.2383 45.7114 69.0055 46.3472 68.608C50.0575 66.7776 52.0487 62.3418 52.0487 57.2624ZM49.123 56.4567C49.1052 57.1816 48.8868 57.8874 48.4921 58.4953C48.0974 59.1033 47.5418 59.5897 46.8873 59.9002C45.4711 60.5978 44.614 60.065 44.614 58.6619C44.6215 57.9326 44.8333 57.22 45.2251 56.6051C45.617 55.9902 46.1733 55.4978 46.8308 55.1836C48.2661 54.4747 49.123 55.0528 49.123 56.4567ZM57.0419 63.0604V59.4956L54.0239 60.9867V64.5514L57.0419 63.0604ZM71.2108 48.1526C71.2108 45.0561 70.5958 43.6688 69.6647 43.0131C68.6771 42.3198 67.6521 42.3154 65.9015 43.1787C64.4405 43.9367 63.2086 45.0723 62.3338 46.4677C61.459 47.863 60.9731 49.4672 60.9264 51.114C60.9264 54.2994 62.7555 55.269 65.5844 53.8703C66.6634 53.3302 67.5772 52.5095 68.2303 51.4941C68.0439 53.6811 67.1853 55.5516 65.5844 56.3433C65.1543 56.5963 64.6669 56.7355 64.1682 56.748C63.6696 56.7606 63.1758 56.646 62.7336 56.4149L61.2243 59.7668C61.9047 60.0817 62.6527 60.222 63.4008 60.1749C64.149 60.1279 64.8736 59.895 65.5094 59.4973C69.2171 57.6661 71.2108 53.2294 71.2108 48.1509V48.1526ZM68.286 47.3478C68.2682 48.0726 68.0498 48.7782 67.6551 49.3861C67.2603 49.9939 66.7048 50.48 66.0503 50.7904C64.635 51.488 63.7778 50.9553 63.7778 49.5522C63.7853 48.8228 63.9971 48.11 64.389 47.495C64.7808 46.8799 65.3371 46.3873 65.9946 46.073C67.4291 45.364 68.286 45.9438 68.286 47.3478ZM80.2688 39.3655C80.2688 37.1602 79.0016 36.0257 77.1203 36.9553C76.1477 37.5248 75.3414 38.3401 74.7823 39.3194C74.2232 40.2988 73.9308 41.408 73.9343 42.5361C73.9343 44.7414 75.2015 45.875 77.0837 44.9463C78.0558 44.3767 78.8616 43.5614 79.4204 42.5822C79.9792 41.603 80.2715 40.4941 80.268 39.3664L80.2688 39.3655ZM86.9752 32.2656L84.7595 33.36L75.2382 53.6567L77.4556 52.5614L86.9752 32.2656ZM88.2817 43.3836C88.2817 41.1783 87.0144 40.0439 85.1331 40.9735C84.1605 41.543 83.3545 42.3583 82.7954 43.3376C82.2363 44.317 81.9437 45.4262 81.9472 46.5543C81.9472 48.7596 83.2136 49.894 85.0957 48.9644C86.0684 48.3949 86.8746 47.5797 87.4339 46.6003C87.9931 45.6209 88.2849 44.5117 88.2817 43.3836ZM78.3145 40.3761C78.3541 40.8653 78.2649 41.3565 78.0555 41.8003C77.8461 42.244 77.5238 42.6249 77.1211 42.9049C76.3756 43.2738 75.8914 42.5988 75.8914 41.5298C75.8517 41.0407 75.941 40.5497 76.1502 40.106C76.3595 39.6622 76.6813 39.2811 77.0837 39.001C77.8284 38.6365 78.3128 39.3071 78.3128 40.3805L78.3145 40.3761ZM86.3273 44.3943C86.367 44.8834 86.2778 45.3745 86.0685 45.8182C85.8593 46.262 85.5375 46.643 85.135 46.9231C84.3895 47.2911 83.9051 46.617 83.9051 45.548C83.8655 45.0589 83.9547 44.5679 84.1639 44.1242C84.3732 43.6804 84.6951 43.2994 85.0974 43.0192C85.8395 42.6477 86.3248 43.3252 86.3248 44.3917L86.3273 44.3943Z" fill="white"/>
<path d="M56.9544 17.4299C47.5384 22.8738 39.3087 33.398 34.6865 44.6747C32.1441 45.0989 29.7035 45.9956 27.4906 47.3186C16.0913 53.9092 6.84867 69.9269 6.84867 83.0933C6.84867 89.6751 9.15925 94.3028 12.8948 96.4541L10.9717 95.3432H10.9796C7.19611 93.2059 4.84808 88.5686 4.85157 81.9423C4.85157 68.7751 14.0925 52.7573 25.4935 46.1676C27.7036 44.8433 30.1424 43.9465 32.6832 43.5237C37.3054 32.247 45.5378 21.7237 54.9573 16.2781C62.0357 12.1875 68.4383 11.7437 73.1511 14.289L73.1649 14.2716L73.5264 14.4783C73.5326 14.4804 73.5384 14.4833 73.5438 14.4869L75.521 15.6336C70.7829 12.8572 64.2183 13.2356 56.9544 17.4299ZM101.387 20.3032L99.4908 19.2071V19.2158C96.5479 17.457 92.4534 17.6785 87.9261 20.2945C85.8013 21.561 83.8583 23.1104 82.15 24.9003C82.0864 24.6745 82.0045 24.4643 81.9331 24.2507C82.2849 25.3271 82.5587 26.4275 82.7526 27.5434C84.7944 25.1348 87.2157 23.0766 89.9206 21.4499C94.3913 18.8644 98.4492 18.6159 101.387 20.3032Z" fill="white"/>
</g>
<defs>
<clipPath id="clip0_9_91071">
<rect width="108" height="109" fill="white"/>
</clipPath>
</defs>
</svg>

<svg xmlns="http://www.w3.org/2000/svg" width="108" height="109" fill="none" viewBox="0 0 108 109"><g clip-path="url(#a)"><path fill="#1b69ff" d="M10.105 94.467h-.008l1.909 1.102c3.74 2.164 8.907 1.852 14.615-1.448l62.428-36.087c8.956-5.174 16.219-17.764 16.219-28.106 0-5.61-2.147-9.39-5.531-10.866q.398.161.777.364l-1.896-1.096v.009c-2.943-1.759-7.038-1.537-11.565 1.079a27.3 27.3 0 0 0-5.77 4.6c-1.239-4.342-3.579-7.51-6.707-9.31l-1.9-1.1-.017-.01-.361-.206-.014.017c-4.713-2.543-11.115-2.101-18.194 1.99-9.42 5.444-17.652 15.968-22.274 27.245-2.54.423-4.98 1.32-7.19 2.644-11.403 6.59-20.648 22.607-20.642 35.775-.01 6.63 2.336 11.267 6.12 13.404"/><path fill="#005bea" d="M17.392 97.454A11.1 11.1 0 0 1 11.761 96l-1.909-1.102a.5.5 0 0 1-.068-.047c-4.066-2.345-6.304-7.238-6.3-13.788 0-13.303 9.369-29.544 20.892-36.202a21.3 21.3 0 0 1 7.086-2.66c4.89-11.783 13.238-21.948 22.378-27.23 6.914-3.995 13.5-4.724 18.552-2.06q.077.015.145.054l.343.196.038.02 1.9 1.102a15.27 15.27 0 0 1 6.691 8.807 27 27 0 0 1 5.29-4.098c4.508-2.605 8.759-3.002 11.984-1.124q.042.015.08.037l1.896 1.096q.07.04.123.1c3.116 1.872 4.878 5.748 4.878 10.83 0 10.49-7.386 23.29-16.466 28.536L26.867 94.554a19.26 19.26 0 0 1-9.475 2.9m-6.968-3.369 1.83 1.058c3.745 2.166 8.759 1.65 14.12-1.448L88.8 57.608c8.806-5.088 15.971-17.504 15.971-27.678 0-5.165-1.907-8.96-5.234-10.412a.5.5 0 0 1-.236-.218l-.852-.492a.5.5 0 0 1-.087-.042c-2.913-1.744-6.844-1.357-11.06 1.082a26.8 26.8 0 0 0-5.662 4.518.495.495 0 0 1-.83-.21c-1.18-4.139-3.42-7.256-6.478-9.015l-1.885-1.092h-.007l-.267-.152a.5.5 0 0 1-.122-.045c-4.761-2.571-11.051-1.867-17.71 1.982-9.023 5.213-17.271 15.31-22.065 27.005a.5.5 0 0 1-.384.301 20.1 20.1 0 0 0-7.018 2.583C13.625 52.225 4.475 68.08 4.48 81.07c0 6.22 2.084 10.827 5.877 12.97q.036.02.067.049z"/><path fill="#fff" d="M39.714 63.355c0-3.096-.615-4.484-1.546-5.14-.988-.693-2.012-.697-3.763.168a9.23 9.23 0 0 0-4.975 7.935c0 3.186 1.829 4.155 4.657 2.756a6.7 6.7 0 0 0 2.647-2.376c-.187 2.187-1.046 4.057-2.647 4.849a2.94 2.94 0 0 1-2.85.071l-1.509 3.35a4.5 4.5 0 0 0 4.285-.268c3.707-1.83 5.701-6.266 5.701-11.345m-2.925-.806a3.92 3.92 0 0 1-2.236 3.444c-1.416.698-2.273.165-2.273-1.238a3.9 3.9 0 0 1 2.217-3.479c1.434-.709 2.292-.13 2.292 1.273m15.26-5.287c0-3.096-.615-4.484-1.546-5.14-.988-.692-2.012-.697-3.763.167a9.23 9.23 0 0 0-4.975 7.936c0 3.185 1.83 4.155 4.658 2.756a6.7 6.7 0 0 0 2.646-2.376c-.186 2.187-1.045 4.057-2.646 4.849a2.94 2.94 0 0 1-2.85.072l-1.51 3.35a4.51 4.51 0 0 0 4.284-.268c3.71-1.83 5.702-6.266 5.702-11.346m-2.926-.805a3.92 3.92 0 0 1-2.236 3.443c-1.416.698-2.273.165-2.273-1.238a3.9 3.9 0 0 1 2.217-3.478c1.435-.71 2.292-.131 2.292 1.273m7.919 6.603v-3.564l-3.018 1.49v3.565zM71.21 48.153c0-3.097-.615-4.484-1.546-5.14-.988-.693-2.013-.698-3.764.166a9.23 9.23 0 0 0-4.975 7.935c0 3.185 1.83 4.155 4.658 2.756a6.7 6.7 0 0 0 2.646-2.376c-.186 2.187-1.045 4.058-2.646 4.85a2.94 2.94 0 0 1-2.85.07l-1.51 3.353a4.5 4.5 0 0 0 4.285-.27c3.708-1.83 5.702-6.268 5.702-11.346zm-2.925-.805a3.92 3.92 0 0 1-2.236 3.442c-1.415.698-2.272.165-2.272-1.238a3.9 3.9 0 0 1 2.217-3.479c1.434-.709 2.291-.13 2.291 1.275m11.983-7.983c0-2.205-1.267-3.34-3.149-2.41a6.44 6.44 0 0 0-3.186 5.581c0 2.205 1.267 3.339 3.15 2.41a6.44 6.44 0 0 0 3.184-5.58m6.706-7.1L84.76 33.36l-9.522 20.297 2.218-1.096zm1.307 11.119c0-2.206-1.268-3.34-3.149-2.41a6.44 6.44 0 0 0-3.186 5.58c0 2.206 1.267 3.34 3.149 2.41a6.44 6.44 0 0 0 3.186-5.58m-9.968-3.008a2.81 2.81 0 0 1-1.193 2.529c-.745.369-1.23-.306-1.23-1.375A2.81 2.81 0 0 1 77.084 39c.744-.364 1.229.306 1.229 1.38zm8.013 4.018a2.8 2.8 0 0 1-1.192 2.53c-.746.367-1.23-.307-1.23-1.376a2.81 2.81 0 0 1 1.192-2.529c.743-.371 1.228.306 1.228 1.373z"/><path fill="#fff" d="M56.954 17.43c-9.416 5.444-17.645 15.968-22.267 27.245a20.6 20.6 0 0 0-7.196 2.644c-11.4 6.59-20.642 22.608-20.642 35.774 0 6.582 2.31 11.21 6.046 13.361l-1.923-1.11h.008c-3.784-2.138-6.132-6.775-6.128-13.402 0-13.167 9.24-29.185 20.642-35.774a20.6 20.6 0 0 1 7.19-2.644c4.621-11.277 12.854-21.8 22.273-27.246 7.079-4.09 13.481-4.534 18.194-1.989l.014-.017.361.206.018.009 1.977 1.147c-4.738-2.777-11.303-2.398-18.567 1.796m44.433 2.873-1.896-1.096v.009c-2.943-1.759-7.038-1.538-11.565 1.078A27.3 27.3 0 0 0 82.15 24.9c-.064-.226-.146-.436-.217-.65a24 24 0 0 1 .82 3.293 29 29 0 0 1 7.168-6.093c4.47-2.586 8.528-2.834 11.466-1.147"/></g><defs><clipPath id="a"><path fill="#fff" d="M0 0h108v109H0z"/></clipPath></defs></svg>
